packages/ffe-icons/icons/filled/md/signal_cellular_alt.svg

<svg xmlns="http://www.w3.org/2000/svg" height="24" viewBox="0 -960 960 960" width="24"><path d="M266.154-180.001q-19.23 0-32.691-13.462-13.462-13.461-13.462-32.691v-107.692q0-19.23 13.462-32.691 13.461-13.462 32.691-13.462 19.231 0 32.692 13.462 13.461 13.461 13.461 32.691v107.692q0 19.23-13.461 32.691-13.461 13.462-32.692 13.462Zm236.154 0q-19.23 0-32.692-13.462-13.461-13.461-13.461-32.691v-307.692q0-19.23 13.461-32.691 13.462-13.462 32.692-13.462t32.691 13.462q13.462 13.461 13.462 32.691v307.692q0 19.23-13.462 32.691-13.461 13.462-32.691 13.462Zm231.538 0q-19.231 0-32.692-13.462-13.461-13.461-13.461-32.691v-507.692q0-19.23 13.461-32.691 13.461-13.462 32.692-13.462 19.23 0 32.691 13.462 13.462 13.461 13.462 32.691v507.692q0 19.23-13.462 32.691-13.461 13.462-32.691 13.462Z"/></svg>

<svg xmlns="http://www.w3.org/2000/svg" height="24" viewBox="0 -960 960 960" width="24"><path d="M266.15-180q-19.23 0-32.69-13.46Q220-206.92 220-226.15v-107.7q0-19.23 13.46-32.69Q246.92-380 266.15-380q19.23 0 32.7 13.46 13.46 13.46 13.46 32.69v107.7q0 19.23-13.46 32.69Q285.38-180 266.15-180Zm236.16 0q-19.23 0-32.69-13.46-13.46-13.46-13.46-32.69v-307.7q0-19.23 13.46-32.69Q483.08-580 502.31-580q19.23 0 32.69 13.46 13.46 13.46 13.46 32.69v307.7q0 19.23-13.46 32.69Q521.54-180 502.31-180Zm231.54 0q-19.23 0-32.7-13.46-13.46-13.46-13.46-32.69v-507.7q0-19.23 13.46-32.69Q714.62-780 733.85-780q19.23 0 32.69 13.46Q780-753.08 780-733.85v507.7q0 19.23-13.46 32.69Q753.08-180 733.85-180Z"/></svg>
